CSETWebApi/CSETWeb_Api/CSETWeb_ApiCore/Diagram/src/main/webapp/img/lib/ibm/users/physical_entity.svg

<svg xmlns="http://www.w3.org/2000/svg" viewBox="0 0 59.6 59.6"><circle cx="29.8" cy="29.8" r="29.8" fill="#c3952d"/><g fill="#fff"><circle cx="29.8" cy="29.8" r="1.4"/><path d="M29.8 34.5c-2.6 0-4.7-2.1-4.7-4.7s2.1-4.7 4.7-4.7 4.7 2.1 4.7 4.7-2.1 4.7-4.7 4.7zm0-8.1a3.37 3.37 0 0 0-3.4 3.4 3.37 3.37 0 0 0 3.4 3.4 3.37 3.37 0 0 0 3.4-3.4 3.37 3.37 0 0 0-3.4-3.4zm0 11.4c-4.4 0-8-3.6-8-8s3.6-8 8-8 8 3.6 8 8-3.6 8-8 8zm0-14.7a6.7 6.7 0 0 0 0 13.4 6.7 6.7 0 0 0 0-13.4zm0 18a11.29 11.29 0 0 1-11.3-11.3c0-6.3 5-11.3 11.3-11.3s11.3 5 11.3 11.3c0 6.2-5.1 11.3-11.3 11.3zm0-21.2c-5.5 0-9.9 4.5-9.9 9.9s4.5 9.9 9.9 9.9 9.9-4.5 9.9-9.9a9.86 9.86 0 0 0-9.9-9.9zm0 24.1a14.3 14.3 0 1 1 0-28.6c7.9 0 14.2 6.5 14.2 14.4S37.7 44 29.8 44zm0-27.1c-7.1 0-12.9 5.8-12.9 12.9s5.8 12.9 12.9 12.9 12.9-5.8 12.9-12.9-5.8-12.9-12.9-12.9zm0 30c-9.4 0-17.1-7.7-17.1-17.1s7.7-17.1 17.1-17.1 17.1 7.7 17.1 17.1-7.7 17.1-17.1 17.1zm0-32.9C21.1 14 14 21.1 14 29.8s7.1 15.8 15.8 15.8 15.8-7.1 15.8-15.8S38.5 14 29.8 14z"/></g></svg>

<?xml version="1.0" encoding="utf-8"?>
<!-- Generator: Adobe Illustrator 21.1.0, SVG Export Plug-In . SVG Version: 6.00 Build 0)  -->
<svg version="1.1" id="Layer_1" xmlns="http://www.w3.org/2000/svg" xmlns:xlink="http://www.w3.org/1999/xlink" x="0px" y="0px"
	 viewBox="0 0 59.6 59.6" style="enable-background:new 0 0 59.6 59.6;" xml:space="preserve">
<style type="text/css">
	.st0{fill:#C3952D;}
	.st1{fill:#FFFFFF;}
</style>
<title>INDIVIDUAL ICONS</title>
<circle class="st0" cx="29.8" cy="29.8" r="29.8"/>
<circle class="st1" cx="29.8" cy="29.8" r="1.4"/>
<path class="st1" d="M29.8,34.5c-2.6,0-4.7-2.1-4.7-4.7s2.1-4.7,4.7-4.7s4.7,2.1,4.7,4.7S32.4,34.5,29.8,34.5L29.8,34.5z M29.8,26.4
	c-1.9,0-3.4,1.5-3.4,3.4c0,1.9,1.5,3.4,3.4,3.4c1.9,0,3.4-1.5,3.4-3.4C33.2,27.9,31.7,26.4,29.8,26.4L29.8,26.4z"/>
<path class="st1" d="M29.8,37.8c-4.4,0-8-3.6-8-8s3.6-8,8-8s8,3.6,8,8S34.2,37.8,29.8,37.8z M29.8,23.1c-3.7,0-6.7,3-6.7,6.7
	c0,3.7,3,6.7,6.7,6.7s6.7-3,6.7-6.7S33.5,23.1,29.8,23.1C29.8,23.1,29.8,23.1,29.8,23.1z"/>
<path class="st1" d="M29.8,41.1c-6.2,0-11.3-5-11.3-11.3s5-11.3,11.3-11.3s11.3,5,11.3,11.3v0C41.1,36,36,41.1,29.8,41.1z
	 M29.8,19.9c-5.5,0-9.9,4.5-9.9,9.9s4.5,9.9,9.9,9.9s9.9-4.5,9.9-9.9l0,0C39.7,24.3,35.3,19.9,29.8,19.9z"/>
<path class="st1" d="M29.8,44c-7.9,0-14.3-6.4-14.3-14.3s6.4-14.3,14.3-14.3S44,21.9,44,29.8C44,37.7,37.7,44,29.8,44z M29.8,16.9
	c-7.1,0-12.9,5.8-12.9,12.9s5.8,12.9,12.9,12.9c7.1,0,12.9-5.8,12.9-12.9c0,0,0,0,0,0C42.7,22.7,36.9,16.9,29.8,16.9L29.8,16.9z"/>
<path class="st1" d="M29.8,46.9c-9.4,0-17.1-7.7-17.1-17.1s7.7-17.1,17.1-17.1c9.4,0,17.1,7.7,17.1,17.1
	C46.9,39.2,39.2,46.9,29.8,46.9z M29.8,14C21.1,14,14,21.1,14,29.8s7.1,15.8,15.8,15.8s15.8-7.1,15.8-15.8
	C45.6,21.1,38.5,14,29.8,14z"/>
</svg>
